src/icons/archive.svg

<svg xmlns="http://www.w3.org/2000/svg" width="512" height="512" viewBox="0 0 512 512">
    <path d="M423.7 242.9l-85-106.2c-2-2.5-5.1-4-8.3-4H181.6c-3.2 0-6.3 1.5-8.3 4l-85 106.2c-1.5 1.9-2.3 4.2-2.3 6.6v95.6c0 11.8 9.6 21.2 21.2 21.2h297.5c11.8 0 21.2-9.6 21.2-21.2v-95.7c.2-2.2-.7-4.8-2.2-6.5zm-19 17.3h-74.4l-42.5 42.5h-63.7l-42.5-42.5h-74.4v-6.9l79.5-99.4h138.5l79.5 99.4v6.9z"/>
    <path d="M326 149.9H186c-5.5 0-10-4.5-10-10s4.5-10 10-10h140c5.5 0 10 4.5 10 10s-4.4 10-10 10zm20.1 40H166c-5.5 0-10-4.5-10-10s4.5-10 10-10h180c5.5 0 10 4.5 10 10s-4.4 10-9.9 10z"/>
</svg>

<?xml version="1.0" encoding="UTF-8"?>
<svg width="512px" height="512px" viewBox="0 0 512 512" version="1.1" xmlns="http://www.w3.org/2000/svg" xmlns:xlink="http://www.w3.org/1999/xlink">
    <!-- Generator: Sketch 62 (91390) - https://sketch.com -->
    <title>archive</title>
    <desc>Created with Sketch.</desc>
    <g id="archive" stroke="none" stroke-width="1" fill="none" fill-rule="evenodd">
        <path d="M423.7,242.9 L338.7,136.7 C336.7,134.2 333.6,132.7 330.4,132.7 L181.6,132.7 C178.4,132.7 175.3,134.2 173.3,136.7 L88.3,242.9 C86.8,244.8 86,247.1 86,249.5 L86,345.1 C86,356.9 95.6,366.3 107.2,366.3 L404.7,366.3 C416.5,366.3 425.9,356.7 425.9,345.1 L425.9,249.4 C426.1,247.2 425.2,244.6 423.7,242.9 Z M404.7,260.2 L330.3,260.2 L287.8,302.7 L224.1,302.7 L181.6,260.2 L107.2,260.2 L107.2,253.3 L186.7,153.9 L325.2,153.9 L404.7,253.3 L404.7,260.2 L404.7,260.2 Z" id="Shape" fill="#000000" fill-rule="nonzero"></path>
        <path d="M326,149.9 L186,149.9 C180.5,149.9 176,145.4 176,139.9 C176,134.4 180.5,129.9 186,129.9 L326,129.9 C331.5,129.9 336,134.4 336,139.9 C336,145.4 331.6,149.9 326,149.9 Z M346.1,189.9 L166,189.9 C160.5,189.9 156,185.4 156,179.9 C156,174.4 160.5,169.9 166,169.9 L346,169.9 C351.5,169.9 356,174.4 356,179.9 C356,185.4 351.6,189.9 346.1,189.9 Z" id="Shape" fill="#000000" fill-rule="nonzero"></path>
    </g>
</svg>
